X:1
T:Willington, LM
T:F. W. Williams, 1851
T:Willington, LM
T:Public Domain
C:F. W. Williams, 1851
Z:Public Domain
%%score ( 1 2 ) ( 3 4 )
L:1/8
M:3/4
K:G
V:1 treble 
V:2 treble 
V:3 bass 
V:4 bass 
V:1
 (EG) | [GB]4 (dB) | G4 [DB]2 | (E2 C2) [CF]2 | [B,G]4 [DA]2 | [DB]4 [DB]2 | [DA]4 [Dd]2 | %7
 ([EG]2 [DF]2) [^CE]2 | D4 DG | [GB]4 (dB) | G4 [DB]2 | (E2 D2) (cA) | (G2 F2) D2 | %13
 (d2 B2) [=FG]2 | [Ee]4 (cA) | [Dd]4 [CF]2 | [B,G]4 |] %17
V:2
 E2 | x4 F2 | G4 x2 | E4 x2 | x6 | x6 | x6 | x6 | D4 D2 | x4 F2 | G4 x2 | E4 C2 | E4 D2 | D4 x2 | %14
 x4 E2 | x6 | x4 |] %17
V:3
 [G,B,]2 | [G,D]4 [D,C]2 | [E,B,]4 [B,,G,]2 | ([C,G,]2 [A,,A,]2) [D,A,]2 | G,4 [D,F,]2 | %5
 G,4 [B,,G,]2 | [D,F,]4 [F,A,]2 | ([G,B,]2 A,2) [A,,G,]2 | [D,F,]4 [G,B,]2 | [G,D]4 [D,C]2 | %10
 [E,B,]4 [B,,G,]2 | ([C,G,]2 [B,,^G,]2) [A,,A,]2 | (B,2 A,2) [C,F,]2 | [B,,G,]4 [B,,G,]2 | %14
 (G,2 ^G,2) [C,A,]2 | [D,B,]4 [D,A,]2 | [G,,G,]4 |] %17
V:4
 x2 | x6 | x6 | x6 | G,4 x2 | G,4 x2 | x6 | x2 A,2 x2 | x6 | x6 | x6 | x6 | D,4 x2 | x6 | C,4 x2 | %15
 x6 | x4 |] %17

